X:164
T:Devil on two Sticks, The
M:6/8
L:1/8
B:Thompson's Compleat Collection of 200 Favourite Country Dances, vol. 1 (London, 1757)
Z:Transcribed and edited by Flynn Titford-Mock, 2007
Z:abc's:AK/Fiddler's Companion
K:G
D2D B2B|ABc B2A|BdD G2G|ABc B2A|B2c ded|c2B A2D|
G2G F2F|E2E D2d|BdD G2G|ABc B2A|BdD G2B|cBA G3:|

